!!!OTL: Marias Wiegenlied und das Resonet.
!!!ARE: Europa, Mitteleuropa, Deutschland
!!!SCT: A0521B
!!!TXL: @@GMH, @@LAT
!!!YEM: Copyright 1995, estate of Helmut Schaffrath.
**kern	**text	**text	**text
*M6/4	*	*	*
*k[b-]	*	*	*
*F:	*	*	*
=1	=1	=1	=1
{2cc	A. Jo-	B. {Re-	Om-
4a	-ſeph,	-so-	-nes
2f	lie-	-net	nunc
4a	-ber	in	con-
=2	=2	=2	=2
2cc	Jo-	lau-	-ci-
4dd	-ſeph	-di-	-ni-
2.cc}	mein,	-bus	-te,
=3	=3	=3	=3
{2cc	hilf	Cum	Na-
4a	mir	ju-	-to
2f	wiegn	-cun-	re-
4a	mein	-dis	-gi
=4	=4	=4	=4
2cc	Kin-	plau-	psal-
4dd	-de-	-si-	-li-
2.cc}	-lein,	-bus,	-te
=5	=5	=5	=5
{2b-	Gott	Si-	Vo-
4b-	der	-on	-ce
2b-	wird	cum-	pi-
4cc	dein	fi-	-a
=6	=6	=6	=6
2b-/	Loh-	-de-	de-
4a	-ner	-li-	-ci-
2g}	ſein,	-bus	-te,
{4a	im	Ap-	sit
=7	=7	=7	=7
2cc	Him-	-pa-	glo-
4a	-mel-	-ru-	-ri-
2f	-reich	-it,	-a
4a	der	quem	Chri-
=8	=8	=8	=8
2g	Jung-	ge-	-sto
4f	-frau	-nu-	no-
2g	Kind,	-it	-stro
4a	Ma-	Ma-	in-
=9	=9	=9	=9
(2f	-ri-	-ri-	-fan-
4e)	.	.	-ti-
2.f}	-a.	-a.}	-a.}
=10||	=10||	=10||	=10||
{2.cc	Ey-	.	.
2.a	-a!	.	.
=11	=11	=11	=11
2.cc	Ey-	.	.
2.a	-a!	.	.
=12||	=12||	=12||	=12||
2f	Vir-	.	.
4g	-go	.	.
2a	De-	.	.
4b-/	-um	.	.
=13	=13	=13	=13
2a	ge-	.	.
4g	-nu-	.	.
2.a}	-it	.	.
=14	=14	=14	=14
{2f	quem	.	.
4g	di-	.	.
2a	-vi-	.	.
4b-/	-na	.	.
=15	=15	=15	=15
2a	vo-	.	.
4g	-lu-	.	.
2a	-it	.	.
4a	po-	.	.
=16	=16	=16	=16
2f	-ten-	.	.
4e	-ti-	.	.
2.f}	-a.	.	.
=17||	=17||	=17||	=17||
{2cc	Ho-	.	.
4cc	-di-	.	.
2cc	-e	.	.
4cc	ap-	.	.
=18	=18	=18	=18
2ff	-pa-	.	.
4ee	-ru-	.	.
2dd}	-it,	.	.
{4cc	ap-	.	.
=19	=19	=19	=19
2ff	-pa-	.	.
4ee	-ru-	.	.
2dd	-it	.	.
4cc	in	.	.
=20	=20	=20	=20
2cc	Is-	.	.
4bn	-ra-	.	.
2.cc}	-el,	.	.
=21	=21	=21	=21
{2f	quem	.	.
4g	prae-	.	.
2a	-di-	.	.
4b-	-xit	.	.
=22	=22	=22	=22
2cc	Ga-	.	.
4b-	-bri-	.	.
2a}	-el,	.	.
{4g	est	.	.
=23	=23	=23	=23
(2a	na-	.	.
4g	.	.	.
2f)	.	.	.
4e	-tus	.	.
=24	=24	=24	=24
[2.f	Rex.	.	.
2.f]}	.	.	.
==	==	==	==
!!!GTL: Geistliche Volkslieder
!!!AGN: Romanze, Ballade, Lied, religioeses Lied
!! J. Walthers Gsgb. 1544 No. 40.
!!!ONB: ESAC (Essen Associative Code) Database: ALTDEU
!!!AMT: compound duple
!!!AIN: vox
!!!EED: Helmut Schaffrath
!!!EEV: 1.0
!!!URL-scan: https://rosdok.uni-rostock.de/mcrviewer/recordIdentifier/rosdok_ppn738218359/iview2/phys_0699.iview2?x=-1272.8135649766991&y=-6.761503299698234&scale=0.3197610882076923&rotation=0&layout=singlePageLayout&logicalDiv=log_0018
!!!ENC: Anna Maria Matuszewska
!!!EEV: 2024/19/03
*-	*-	*-	*-
